; generated by PrusaSlicer 2.8.0+linux-x64-GTK3 on 2024-07-12 at 16:52:00 UTC


;
;
; 

; external perimeters extrusion width = 0.45mm
; perimeters extrusion width = 0.45mm
; infill extrusion width = 0.45mm
; solid infill extrusion width = 0.45mm
; top infill extrusion width = 0.40mm
; first layer extrusion width = 0.42mm

M73 P0 R92
M73 Q0 S93
M201 X1000 Y1000 Z200 E5000 ; sets maximum accelerations, mm/sec^2
M203 X200 Y200 Z12 E120 ; sets maximum feedrates, mm / sec
M204 S1250 T1250 ; sets acceleration (S) and retract acceleration (R), mm/sec^2
M205 X8.00 Y8.00 Z0.40 E4.50 ; sets the jerk limits, mm/sec
M205 S0 T0 ; sets the minimum extruding and travel feed rate, mm/sec

; printing object axle-bracket v1.stl id:0 copy 0
; stop printing object axle-bracket v1.stl id:0 copy 0
; printing object axle-bracket v1.stl id:0 copy 1
; stop printing object axle-bracket v1.stl id:0 copy 1
; printing object axle-bracket v1.stl id:0 copy 2
; stop printing object axle-bracket v1.stl id:0 copy 2

;TYPE:Custom
M862.3 P "MK3S" ; printer model check
M862.1 P0.4 ; nozzle diameter check
M115 U3.13.3 ; tell printer latest fw version
G90 ; use absolute coordinates
M83 ; extruder relative mode
M104 S230 ; set extruder temp
M140 S85 ; set bed temp
M190 S85 ; wait for bed temp
M109 S230 ; wait for extruder temp
G28 W ; home all without mesh bed level
G80 X89.0479 Y83.5729 W71.9042 H42.8542 ; mesh bed levelling

G1 Z0.2 F720
G1 Y-3 F1000 ; go outside print area
G92 E0
G1 X60 E9 F1000 ; intro line
G1 X100 E12.5 F1000 ; intro line

G92 E0
M221 S95

; Don't change E values below. Excessive value can damage the printer.
M907 E430 ; set extruder motor current
G21 ; set units to millimeters
G90 ; use absolute coordinates
M83 ; use relative distances for extrusion

M900 K0.08 ; Filament gcode LA 1.5
M900 K45 ; Filament gcode LA 1.0




M107
;LAYER_CHANGE
;Z:0.2
;HEIGHT:0.2
G1 E-1 F2100
G1 Z.4 F720
G1 X89.627 Y84.702 F10800
G1 Z.2 F720
M73 Q0 S92
G1 E1 F2100
M204 S800
;TYPE:Skirt/Brim
;WIDTH:0.42
G1 F1200
G1 X90.66 Y83.899 E.04102
G1 X91.425 Y83.761 E.02437
G1 X158.575 Y83.761 E2.10544
G1 X159.823 Y84.152 E.04101
G1 X160.626 Y85.185 E.04102
G1 X160.764 Y85.95 E.02437
G1 X160.764 Y124.05 E1.1946
G1 X160.373 Y125.298 E.04101
G1 X159.34 Y126.101 E.04102
G1 X158.575 Y126.239 E.02437
G1 X91.425 Y126.239 E2.10544
G1 X90.177 Y125.848 E.04101
M73 P0 R91
G1 X89.374 Y124.815 E.04102
G1 X89.236 Y124.05 E.02437
G1 X89.236 Y85.95 E1.1946
G1 X89.609 Y84.759 E.03913
M204 S1000
;WIPE_START
G1 F8640
G1 X89.627 Y84.702 E-.0138
G1 X90.66 Y83.899 E-.30211
G1 X91.425 Y83.761 E-.17949
G1 X93.61 Y83.761 E-.5046
;WIPE_END
G1 Z.4 F720
; printing object axle-bracket v1.stl id:0 copy 1
G1 X151.825 Y87.887 F10800
G1 Z.2 F720
G1 E1 F2100
M204 S800
;TYPE:Perimeter
;WIDTH:0.419999
G1 F1200
G1 X151.953 Y88.051 E.00652
G1 X151.996 Y88.269 E.00697
G1 X151.996 Y121.731 E1.04918
G1 X151.953 Y121.949 E.00697
G1 X151.77 Y122.184 E.00934
G1 X151.43 Y122.297 E.01123
G1 X146.67 Y122.297 E.14925
G1 X146.33 Y122.184 E.01123
G1 X146.147 Y121.949 E.00934
G1 X146.104 Y121.731 E.00697
G1 X146.104 Y88.269 E1.04918
G1 X146.147 Y88.051 E.00697
G1 X146.33 Y87.816 E.00934
G1 X146.67 Y87.703 E.01123
G1 X151.43 Y87.703 E.14925
G1 X151.77 Y87.816 E.01123
G1 X151.788 Y87.84 E.00094
M204 S1000
G1 X151.788 Y87.84 F10800
G1 X151.568 Y88.166
M204 S800
;TYPE:External perimeter
G1 F1200
G1 X151.619 Y88.269 E.0036
G1 X151.619 Y121.731 E1.04918
G1 X151.544 Y121.882 E.00529
G1 X151.43 Y121.92 E.00377
G1 X146.67 Y121.92 E.14925
G1 X146.556 Y121.882 E.00377
G1 X146.481 Y121.731 E.00529
G1 X146.481 Y88.269 E1.04918
G1 X146.556 Y88.118 E.00529
G1 X146.67 Y88.08 E.00377
G1 X151.43 Y88.08 E.14925
G1 X151.538 Y88.116 E.00357
M204 S1000
;WIPE_START
G1 F8640
G1 X151.568 Y88.166 E-.01346
G1 X151.619 Y88.269 E-.02654
G1 X151.619 Y92.427 E-.96
;WIPE_END
G1 Z.4 F720
G1 X157.788 Y86.737 F10800
G1 Z.2 F720
G1 E1 F2100
M204 S800
;TYPE:Perimeter
G1 F1200
G1 X157.788 Y89.633 E.0908
G1 X157.788 Y123.263 E1.05444
G1 X140.312 Y123.263 E.54795
G1 X140.312 Y86.737 E1.14525
G1 X157.728 Y86.737 E.54607
M204 S1000
G1 X158.165 Y86.36 F10800
M204 S800
;TYPE:External perimeter
G1 F1200
G1 X158.165 Y89.633 E.10262
G1 X158.165 Y123.64 E1.06626
G1 X139.935 Y123.64 E.57159
G1 X139.935 Y86.36 E1.16889
G1 X158.105 Y86.36 E.56971
M204 S1000
;WIPE_START
G1 F8640
G1 X158.165 Y86.36 E-.01385
G1 X158.165 Y89.633 E-.75574
G1 X158.165 Y90.631 E-.23041
;WIPE_END
G1 Z.4 F720
G1 X156.855 Y86.907 F10800
G1 Z.2 F720
G1 E1 F2100
M204 S800
;TYPE:Solid infill
;WIDTH:0.420503
G1 F1200
G1 X157.449 Y87.5 E.02635
G1 X157.449 Y88.034 E.01677
G1 X156.491 Y87.076 E.04254
G1 X155.957 Y87.076 E.01677
G1 X157.449 Y88.568 E.06625
G1 X157.449 Y89.102 E.01677
G1 X155.423 Y87.076 E.08996
G1 X154.889 Y87.076 E.01677
G1 X157.449 Y89.636 E.11367
G1 X157.449 Y90.17 E.01677
G1 X154.355 Y87.076 E.13738
G1 X153.821 Y87.076 E.01677
G1 X157.449 Y90.704 E.16109
G1 X157.449 Y91.238 E.01677
G1 X153.287 Y87.076 E.1848
G1 X152.753 Y87.076 E.01677
G1 X157.449 Y91.772 E.20851
G1 X157.449 Y92.306 E.01677
G1 X152.219 Y87.076 E.23222
G1 X151.685 Y87.076 E.01677
G1 X157.449 Y92.84 E.25593
G1 X157.449 Y93.374 E.01677
G1 X152.335 Y88.261 E.22704
G1 X152.268 Y87.914 E.0111
G1 X151.974 Y87.537 E.01501
G1 X151.438 Y87.364 E.01768
G1 X151.151 Y87.076 E.01277
G1 X150.617 Y87.076 E.01677
G1 X150.904 Y87.364 E.01277
G1 X150.37 Y87.364 E.01677
G1 X150.083 Y87.076 E.01277
G1 X149.549 Y87.076 E.01677
G1 X149.836 Y87.364 E.01277
G1 X149.302 Y87.364 E.01677
G1 X149.015 Y87.076 E.01277
G1 X148.481 Y87.076 E.01677
G1 X148.768 Y87.364 E.01277
G1 X148.234 Y87.364 E.01677
G1 X147.947 Y87.076 E.01277
G1 X147.413 Y87.076 E.01677
G1 X147.7 Y87.364 E.01277
G1 X147.166 Y87.364 E.01677
G1 X146.879 Y87.076 E.01277
G1 X146.345 Y87.076 E.01677
G1 X146.635 Y87.366 E.01288
G1 X146.502 Y87.378 E.00419
G1 X146.23 Y87.495 E.0093
G1 X145.811 Y87.076 E.0186
G1 X145.277 Y87.076 E.01677
G1 X145.956 Y87.755 E.03015
G1 X145.832 Y87.914 E.00633
G1 X145.79 Y88.124 E.00672
G1 X144.743 Y87.076 E.04651
G1 X144.209 Y87.076 E.01677
G1 X145.765 Y88.632 E.06909
G1 X145.765 Y89.166 E.01677
G1 X143.675 Y87.076 E.0928
G1 X143.141 Y87.076 E.01677
G1 X145.765 Y89.7 E.11651
G1 X145.765 Y90.234 E.01677
G1 X142.607 Y87.076 E.14022
G1 X142.073 Y87.076 E.01677
G1 X145.765 Y90.768 E.16393
G1 X145.765 Y91.302 E.01677
G1 X141.539 Y87.076 E.18764
G1 X141.005 Y87.076 E.01677
G1 X145.765 Y91.836 E.21135
G1 X145.765 Y92.37 E.01677
G1 X140.651 Y87.257 E.22704
G1 X140.651 Y87.791 E.01677
G1 X145.765 Y92.904 E.22704
G1 X145.765 Y93.438 E.01677
G1 X140.651 Y88.325 E.22704
G1 X140.651 Y88.859 E.01677
G1 X145.765 Y93.972 E.22704
G1 X145.765 Y94.506 E.01677
G1 X140.651 Y89.393 E.22704
G1 X140.651 Y89.927 E.01677
G1 X145.765 Y95.04 E.22704
G1 X145.765 Y95.574 E.01677
G1 X140.651 Y90.461 E.22704
G1 X140.651 Y90.995 E.01677
G1 X145.765 Y96.108 E.22704
G1 X145.765 Y96.642 E.01677
G1 X140.651 Y91.529 E.22704
G1 X140.651 Y92.063 E.01677
G1 X145.765 Y97.176 E.22704
G1 X145.765 Y97.71 E.01677
G1 X140.651 Y92.597 E.22704
G1 X140.651 Y93.131 E.01677
G1 X145.765 Y98.244 E.22704
G1 X145.765 Y98.778 E.01677
G1 X140.651 Y93.665 E.22704
G1 X140.651 Y94.199 E.01677
G1 X145.765 Y99.312 E.22704
G1 X145.765 Y99.846 E.01677
G1 X140.651 Y94.733 E.22704
G1 X140.651 Y95.267 E.01677
G1 X145.765 Y100.38 E.22704
G1 X145.765 Y100.914 E.01677
G1 X140.651 Y95.801 E.22704
G1 X140.651 Y96.335 E.01677
G1 X145.765 Y101.448 E.22704
G1 X145.765 Y101.982 E.01677
G1 X140.651 Y96.868 E.22707
G1 X140.651 Y97.402 E.01677
G1 X145.765 Y102.516 E.22707
G1 X145.765 Y103.05 E.01677
G1 X140.651 Y97.936 E.22707
G1 X140.651 Y98.47 E.01677
G1 X145.765 Y103.584 E.22707
G1 X145.765 Y104.118 E.01677
G1 X140.651 Y99.004 E.22707
G1 X140.651 Y99.538 E.01677
G1 X145.765 Y104.652 E.22707
G1 X145.765 Y105.185 E.01673
G1 X140.651 Y100.072 E.22704
G1 X140.651 Y100.606 E.01677
G1 X145.765 Y105.719 E.22704
G1 X145.765 Y106.253 E.01677
M73 P1 R91
G1 X140.651 Y101.14 E.22704
M73 Q1 S92
G1 X140.651 Y101.674 E.01677
G1 X145.765 Y106.787 E.22704
G1 X145.765 Y107.321 E.01677
G1 X140.651 Y102.208 E.22704
G1 X140.651 Y102.742 E.01677
G1 X145.765 Y107.855 E.22704
G1 X145.765 Y108.389 E.01677
G1 X140.651 Y103.276 E.22704
G1 X140.651 Y103.81 E.01677
G1 X145.765 Y108.923 E.22704
G1 X145.765 Y109.457 E.01677
G1 X140.651 Y104.344 E.22704
G1 X140.651 Y104.878 E.01677
G1 X145.765 Y109.991 E.22704
G1 X145.765 Y110.525 E.01677
G1 X140.651 Y105.412 E.22704
G1 X140.651 Y105.946 E.01677
G1 X145.765 Y111.059 E.22704
G1 X145.765 Y111.593 E.01677
G1 X140.651 Y106.48 E.22704
G1 X140.651 Y107.014 E.01677
G1 X145.765 Y112.127 E.22704
G1 X145.765 Y112.661 E.01677
G1 X140.651 Y107.548 E.22704
G1 X140.651 Y108.082 E.01677
G1 X145.765 Y113.195 E.22704
G1 X145.765 Y113.729 E.01677
G1 X140.651 Y108.616 E.22704
G1 X140.651 Y109.15 E.01677
G1 X145.765 Y114.263 E.22704
G1 X145.765 Y114.797 E.01677
G1 X140.651 Y109.684 E.22704
G1 X140.651 Y110.218 E.01677
G1 X145.765 Y115.331 E.22704
G1 X145.765 Y115.865 E.01677
G1 X140.651 Y110.752 E.22704
G1 X140.651 Y111.286 E.01677
G1 X145.765 Y116.399 E.22704
G1 X145.765 Y116.933 E.01677
G1 X140.651 Y111.82 E.22704
G1 X140.651 Y112.354 E.01677
G1 X145.765 Y117.467 E.22704
G1 X145.765 Y118.001 E.01677
G1 X140.651 Y112.888 E.22704
G1 X140.651 Y113.422 E.01677
G1 X145.765 Y118.535 E.22704
G1 X145.765 Y119.069 E.01677
G1 X140.651 Y113.956 E.22704
G1 X140.651 Y114.49 E.01677
G1 X145.765 Y119.603 E.22704
G1 X145.765 Y120.137 E.01677
G1 X140.651 Y115.024 E.22704
G1 X140.651 Y115.558 E.01677
G1 X145.765 Y120.671 E.22704
M73 Q1 S91
G1 X145.765 Y121.205 E.01677
G1 X140.482 Y115.922 E.23457
M204 S1000
;WIPE_START
G1 F8640
G1 X143.544 Y118.984 E-1
;WIPE_END
G1 Z.4 F720
G1 X157.618 Y94.078 F10800
G1 Z.2 F720
G1 E1 F2100
M204 S800
G1 F1200
G1 X152.335 Y88.795 E.23457
G1 X152.335 Y89.329 E.01677
G1 X157.449 Y94.442 E.22704
G1 X157.449 Y94.976 E.01677
G1 X152.335 Y89.863 E.22704
G1 X152.335 Y90.397 E.01677
G1 X157.449 Y95.51 E.22704
G1 X157.449 Y96.044 E.01677
G1 X152.335 Y90.931 E.22704
G1 X152.335 Y91.465 E.01677
G1 X157.449 Y96.578 E.22704
G1 X157.449 Y97.112 E.01677
G1 X152.335 Y91.999 E.22704
G1 X152.335 Y92.533 E.01677
G1 X157.449 Y97.646 E.22704
G1 X157.449 Y98.18 E.01677
G1 X152.335 Y93.067 E.22704
G1 X152.335 Y93.601 E.01677
G1 X157.449 Y98.714 E.22704
G1 X157.449 Y99.248 E.01677
G1 X152.335 Y94.135 E.22704
G1 X152.335 Y94.669 E.01677
G1 X157.449 Y99.782 E.22704
G1 X157.449 Y100.316 E.01677
G1 X152.335 Y95.203 E.22704
G1 X152.335 Y95.737 E.01677
G1 X157.449 Y100.85 E.22704
G1 X157.449 Y101.384 E.01677
G1 X152.335 Y96.271 E.22704
G1 X152.335 Y96.805 E.01677
M73 P1 R90
G1 X157.449 Y101.918 E.22704
G1 X157.449 Y102.452 E.01677
G1 X152.335 Y97.339 E.22704
G1 X152.335 Y97.873 E.01677
G1 X157.449 Y102.986 E.22704
G1 X157.449 Y103.52 E.01677
G1 X152.335 Y98.407 E.22704
G1 X152.335 Y98.941 E.01677
G1 X157.449 Y104.054 E.22704
G1 X157.449 Y104.588 E.01677
G1 X152.335 Y99.475 E.22704
G1 X152.335 Y100.009 E.01677
G1 X157.449 Y105.122 E.22704
G1 X157.449 Y105.656 E.01677
G1 X152.335 Y100.543 E.22704
G1 X152.335 Y101.077 E.01677
G1 X157.449 Y106.19 E.22704
G1 X157.449 Y106.724 E.01677
G1 X152.335 Y101.611 E.22704
G1 X152.335 Y102.145 E.01677
G1 X157.449 Y107.258 E.22704
G1 X157.449 Y107.792 E.01677
G1 X152.335 Y102.679 E.22704
G1 X152.335 Y103.213 E.01677
G1 X157.449 Y108.326 E.22704
G1 X157.449 Y108.86 E.01677
G1 X152.335 Y103.747 E.22704
G1 X152.335 Y104.281 E.01677
G1 X157.449 Y109.394 E.22704
G1 X157.449 Y109.928 E.01677
G1 X152.335 Y104.815 E.22704
G1 X152.335 Y105.349 E.01677
G1 X157.449 Y110.462 E.22704
G1 X157.449 Y110.996 E.01677
G1 X152.335 Y105.883 E.22704
G1 X152.335 Y106.417 E.01677
G1 X157.449 Y111.53 E.22704
G1 X157.449 Y112.064 E.01677
G1 X152.335 Y106.951 E.22704
G1 X152.335 Y107.485 E.01677
G1 X157.449 Y112.598 E.22704
G1 X157.449 Y113.132 E.01677
G1 X152.335 Y108.019 E.22704
G1 X152.335 Y108.552 E.01673
G1 X157.449 Y113.666 E.22707
G1 X157.449 Y114.2 E.01677
G1 X152.335 Y109.086 E.22707
G1 X152.335 Y109.62 E.01677
G1 X157.449 Y114.734 E.22707
G1 X157.449 Y115.268 E.01677
G1 X152.335 Y110.154 E.22707
G1 X152.335 Y110.688 E.01677
G1 X157.449 Y115.802 E.22707
G1 X157.449 Y116.336 E.01677
G1 X152.335 Y111.222 E.22707
G1 X152.335 Y111.756 E.01677
G1 X157.449 Y116.869 E.22704
G1 X157.449 Y117.403 E.01677
G1 X152.335 Y112.29 E.22704
G1 X152.335 Y112.824 E.01677
G1 X157.449 Y117.937 E.22704
G1 X157.449 Y118.471 E.01677
G1 X152.335 Y113.358 E.22704
G1 X152.335 Y113.892 E.01677
G1 X157.449 Y119.005 E.22704
G1 X157.449 Y119.539 E.01677
G1 X152.335 Y114.426 E.22704
G1 X152.335 Y114.96 E.01677
G1 X157.449 Y120.073 E.22704
G1 X157.449 Y120.607 E.01677
G1 X152.335 Y115.494 E.22704
G1 X152.335 Y116.028 E.01677
G1 X157.449 Y121.141 E.22704
G1 X157.449 Y121.675 E.01677
G1 X152.335 Y116.562 E.22704
G1 X152.335 Y117.096 E.01677
G1 X157.449 Y122.209 E.22704
G1 X157.449 Y122.743 E.01677
G1 X152.335 Y117.63 E.22704
G1 X152.335 Y118.164 E.01677
G1 X157.095 Y122.924 E.21135
G1 X156.561 Y122.924 E.01677
G1 X152.335 Y118.698 E.18764
G1 X152.335 Y119.232 E.01677
G1 X156.027 Y122.924 E.16393
G1 X155.493 Y122.924 E.01677
G1 X152.335 Y119.766 E.14022
G1 X152.335 Y120.3 E.01677
G1 X154.959 Y122.924 E.11651
G1 X154.425 Y122.924 E.01677
G1 X152.335 Y120.834 E.0928
G1 X152.335 Y121.368 E.01677
G1 X153.891 Y122.924 E.06909
G1 X153.357 Y122.924 E.01677
G1 X152.31 Y121.876 E.04651
G1 X152.268 Y122.086 E.00672
G1 X152.144 Y122.245 E.00633
G1 X152.823 Y122.924 E.03015
G1 X152.289 Y122.924 E.01677
G1 X151.87 Y122.505 E.0186
G1 X151.592 Y122.625 E.00951
G1 X151.457 Y122.625 E.00424
G1 X151.755 Y122.924 E.01325
G1 X151.221 Y122.924 E.01677
G1 X150.924 Y122.627 E.01319
G1 X150.391 Y122.628 E.01673
G1 X150.687 Y122.924 E.01314
G1 X150.153 Y122.924 E.01677
G1 X149.859 Y122.629 E.01308
G1 X149.326 Y122.63 E.01673
G1 X149.619 Y122.924 E.01303
G1 X149.085 Y122.924 E.01677
G1 X148.793 Y122.632 E.01297
G1 X148.26 Y122.633 E.01673
G1 X148.551 Y122.924 E.01292
G1 X148.017 Y122.924 E.01677
G1 X147.728 Y122.634 E.01285
G1 X147.195 Y122.635 E.01673
G1 X147.483 Y122.924 E.01281
G1 X146.949 Y122.924 E.01677
G1 X146.662 Y122.636 E.01277
G1 X146.126 Y122.463 E.01768
G1 X145.832 Y122.086 E.01501
G1 X145.765 Y121.739 E.0111
G1 X140.651 Y116.626 E.22704
G1 X140.651 Y117.16 E.01677
G1 X146.415 Y122.924 E.25593
G1 X145.881 Y122.924 E.01677
G1 X140.651 Y117.694 E.23222
G1 X140.651 Y118.228 E.01677
G1 X145.347 Y122.924 E.20851
G1 X144.813 Y122.924 E.01677
G1 X140.651 Y118.762 E.1848
G1 X140.651 Y119.296 E.01677
G1 X144.279 Y122.924 E.16109
G1 X143.745 Y122.924 E.01677
G1 X140.651 Y119.83 E.13738
G1 X140.651 Y120.364 E.01677
G1 X143.211 Y122.924 E.11367
G1 X142.677 Y122.924 E.01677
G1 X140.651 Y120.898 E.08996
G1 X140.651 Y121.432 E.01677
G1 X142.143 Y122.924 E.06625
G1 X141.609 Y122.924 E.01677
G1 X140.651 Y121.966 E.04254
G1 X140.651 Y122.5 E.01677
G1 X141.245 Y123.093 E.02635
M204 S1000
;WIPE_START
G1 F8640
G1 X140.651 Y122.5 E-.19381
G1 X140.651 Y121.966 E-.1233
G1 X141.609 Y122.924 E-.31283
G1 X142.143 Y122.924 E-.1233
G1 X141.388 Y122.168 E-.24676
;WIPE_END
G1 Z.4 F720
; stop printing object axle-bracket v1.stl id:0 copy 1
; printing object axle-bracket v1.stl id:0 copy 2
G1 X127.775 Y87.887 F10800
G1 Z.2 F720
G1 E1 F2100
M204 S800
;TYPE:Perimeter
;WIDTH:0.419999
G1 F1200
G1 X127.903 Y88.051 E.00652
G1 X127.946 Y88.269 E.00697
G1 X127.946 Y121.731 E1.04918
G1 X127.903 Y121.949 E.00697
G1 X127.72 Y122.184 E.00934
G1 X127.38 Y122.297 E.01123
G1 X122.62 Y122.297 E.14925
G1 X122.28 Y122.184 E.01123
G1 X122.097 Y121.949 E.00934
G1 X122.054 Y121.731 E.00697
G1 X122.054 Y88.269 E1.04918
G1 X122.097 Y88.051 E.00697
G1 X122.28 Y87.816 E.00934
G1 X122.62 Y87.703 E.01123
G1 X127.38 Y87.703 E.14925
G1 X127.72 Y87.816 E.01123
G1 X127.738 Y87.84 E.00094
M204 S1000
G1 X127.738 Y87.84 F10800
G1 X127.518 Y88.166
M204 S800
;TYPE:External perimeter
G1 F1200
G1 X127.569 Y88.269 E.0036
G1 X127.569 Y121.731 E1.04918
G1 X127.494 Y121.882 E.00529
G1 X127.38 Y121.92 E.00377
G1 X122.62 Y121.92 E.14925
G1 X122.506 Y121.882 E.00377
G1 X122.431 Y121.731 E.00529
